X:212
T: Petrus und Pilatus (3-15), S. 53
N: P0987
O: Lothringen
S: PINCK, Louis: Verklingende Weisen, Bd3, Metz 1933]
R: yyy]
M: 2/2
L: 1/16
K: G
D4 | G4F4G4A4 | _B8=F8 |
B8c8 | d8z4
d4 | _e4d4d4c2c2 | d8_B4
d4 | c4_B4A4G4 | A4-A3DD8 |
G6G2F8 | G8z4

@@@ Tune index: 7762
